X:1
T:Title
%%score { 1 | ( 2 3 ) }
L:1/8
Q:1/4=108
M:4/4
K:C
V:1 treble nm="Grand Piano"
V:2 bass 
V:3 bass 
V:1
 [Ec]3 [Ec] [Ec]2 [Ec]2 | e3 d d2 c2 | B3 A A2 G2 | B3 A A2 G2 | [Ec]3 [Ec] [Ec]2 [Ec]2 | %5
w: Charles~Converse * * *|||||
 e3 d d2 [Ec]2 | [FA]3 [FA] [EG]2 [Gc]2 | [Ge]2 [Fd]2 [Ec]4 | d3 d d4 | e3 e e4 | c3 c cccc | %11
w: ||||||
 [Bd]6 z2 | c3 c c4 |[M:5/4] [Ac]3 A A6 |[M:4/4] GGcc B2 d2 | [Ec]6 z2 | d3 d d4 | e3 e e4 | %18
w: |||||||
 c3 c cccc | [Bd]6 z2 | c3 c c4 |[M:5/4] [Ac]3 A A6 |[M:4/4] GGcc B2 d2 | [Ec]6 z2 |] %24
w: ||||||
V:2
 [C,G,]3 [C,G,] [C,G,]2 [C,G,]2 | [CG]3 [G,B,F] [G,B,F]2 [G,CE]2 | %2
 [G,DF]3 [G,CF] [G,CF]2 [G,B,F]2 | [G,DF]3 [G,CF] [G,F]2- [G,B,F]2 | %4
 [C,G,]3 [C,G,] [C,G,]2 [C,G,]2 | [CG]3 [G,B,F] [G,B,F]2[K:bass] [C,C]2 | %6
 [F,C]3 [F,C] [C,C]2 [E,C]2 | [G,C]2 [G,B,]2 [C,C]4 | [G,B,G]3 [G,B,G] [G,B,G]4 | %9
 [CG]3 [CG] [CG]4 | [A,EA]3 [A,EA] [A,EA][A,EA][A,EA][A,EA] | [G,F]6 z2 | [CEG]3 [CEG] [CEG]4 | %13
[M:5/4] [F,F]3 [F,CF] [F,CF]6 |[M:4/4] [G,CE][G,CE][G,CE][G,CE] [G,D]2 [G,B,F]2 | [C,G,]6 z2 | %16
 [G,B,G]3 [G,B,G] [G,B,G]4 | [CG]3 [CG] [CG]4 | [A,EA]3 [A,EA] [A,EA][A,EA][A,EA][A,EA] | %19
 [G,F]6 z2 | [CEG]3 [CEG] [CEG]4 |[M:5/4] [F,F]3 [F,CF] [F,CF]6 | %22
[M:4/4] [G,CE][G,CE][G,CE][G,CE] [G,D]2 [G,B,F]2 | [C,G,]6 z2 |] %24
V:3
 x8 | x8 | x8 | z4 C2 z2 | x8 | x6[K:bass] x2 | x8 | x8 | x8 | x8 | x8 | x8 | x8 |[M:5/4] x10 | %14
[M:4/4] x8 | x8 | x8 | x8 | x8 | x8 | x8 |[M:5/4] x10 |[M:4/4] x8 | x8 |] %24

